X:3
T:No.123 Drowsy Maggie
M:4/4
L:1/8
C:reel
K:D
E2Bd cABG|E2Bc dAFD|
E2Bd cABc|[1dfec dAFD:|[2dfec dAFA||
d2fe dcBd|(3cBA eA ceAc|
defe dcBc|def^g aecA|
d2fe dcBd|(3cBA eA ceAg|
(3f^ga ec dcBa|^gbeg aecA||
